style/icons/addFile.svg

<svg width="49" height="55" viewBox="0 0 49 55" fill="none" xmlns="http://www.w3.org/2000/svg">
<path d="M27.5 8.59375C27.5 6.69238 25.9639 5.15625 24.0625 5.15625C22.1611 5.15625 20.625 6.69238 20.625 8.59375V24.0625H5.15625C3.25488 24.0625 1.71875 25.5986 1.71875 27.5C1.71875 29.4014 3.25488 30.9375 5.15625 30.9375H20.625V46.4062C20.625 48.3076 22.1611 49.8438 24.0625 49.8438C25.9639 49.8438 27.5 48.3076 27.5 46.4062V30.9375H42.9688C44.8701 30.9375 46.4062 29.4014 46.4062 27.5C46.4062 25.5986 44.8701 24.0625 42.9688 24.0625H27.5V8.59375Z" fill="#F47950"/>
</svg>

<svg xmlns="http://www.w3.org/2000/svg" width="49" height="55" fill="none"><path fill="#F47950" d="M27.5 8.594a3.434 3.434 0 0 0-3.437-3.438 3.434 3.434 0 0 0-3.438 3.438v15.469H5.156A3.434 3.434 0 0 0 1.72 27.5a3.434 3.434 0 0 0 3.437 3.438h15.469v15.468a3.434 3.434 0 0 0 3.438 3.438 3.434 3.434 0 0 0 3.437-3.438V30.938H42.97a3.434 3.434 0 0 0 3.437-3.438 3.434 3.434 0 0 0-3.437-3.437H27.5z"/></svg>
